svgs/sharp-solid/ski-boot.svg

<svg xmlns="http://www.w3.org/2000/svg" viewBox="0 0 512 512"><!--! Font Awesome Pro 6.6.0 by @fontawesome - https://fontawesome.com License - https://fontawesome.com/license (Commercial License) Copyright 2024 Fonticons, Inc. --><path d="M48 272l111.7 0 48-240L96 32 48 272zm-6.4 32L0 512l512 0 0-64-32 0 0-96L326.4 288 272 288l-16 0 0-32 16 0 60.8 0 12.8-64L288 192l-16 0 0-32 16 0 64 0L384 0 320 0l-6.4 32L240 32c0 1-.1 2.1-.3 3.1l-51.2 256L185.9 304l-13.1 0L41.6 304z"/></svg>

<svg xmlns="http://www.w3.org/2000/svg" viewBox="0 0 512 512"><!--! Font Awesome Pro 6.4.2 by @fontawesome - https://fontawesome.com License - https://fontawesome.com/license (Commercial License) Copyright 2023 Fonticons, Inc. --><path d="M48 272H159.7l48-240H96L48 272zm-6.4 32L0 512H512V448H480V352L326.4 288H272 256V256h16 60.8l12.8-64H288 272V160h16 64L384 0H320l-6.4 32H240c0 1-.1 2.1-.3 3.1l-51.2 256L185.9 304H172.8 41.6z"/></svg>
